X: 68
T: No_71_Our_Sweetheart_Got_Married.krn
N: Derived from No_71_Our_Sweetheart_Got_Married.krn
%%abc-version 2.0
%%abcx-abcm2ps-target-version 5.9.1 (29 Sep 2008)
%%abc-creator hum2abc beta
%%abcx-conversion-date 2019/03/15 08:27:55
%%humdrum-veritas 1358844606
%%humdrum-veritas-data 3079034897
%%linebreak <none>
%%barnumbers 0
L: 1/8
M: 2/4
K: F clef=treble
[K:clef=treble][M:2/4]FF/F/ FF | 
F4 | 
[M:3/4]c/c3/ cc FE | 
F/F3/ FFC2 | 
C/C3/ CC F, z | 
F2FF C=B, | 
[M:2/4]C/C3/ CC | 
[M:3/4]CC C/A,3/ F,F, | 
[M:2/4]F,3F, | 
[M:3/4]F,2F,z3 | 
FF/F/ FF F3/A/ | 
[M:2/4]F2F z | 
[M:3/4]c/c3/ cc FE | 
F/F3/ FF C=B, | 
D/C3/ CC F, z | 
F2FF C=B, | 
[M:2/4]C/C3/ CC | 
[M:3/4]C/C3/ C/A,3/ F,F, | 
[M:2/4]F,3F, | 
F,2F, z |]  



